src/Images/twitter_icon.svg

<svg width="21" height="18" viewBox="0 0 21 18" fill="none" xmlns="http://www.w3.org/2000/svg">
<path d="M20.2661 2.824C19.5409 3.15628 18.7688 3.37484 17.9771 3.472C18.8163 2.94949 19.4387 2.14168 19.7301 1.197C18.9515 1.67596 18.0948 2.01444 17.1991 2.197C16.832 1.78898 16.3835 1.46246 15.8824 1.23854C15.3813 1.01462 14.8389 0.89827 14.2901 0.897003C13.2165 0.914107 12.1937 1.35691 11.4466 2.12803C10.6995 2.89915 10.2892 3.93544 10.3061 5.009C10.3047 5.32407 10.3383 5.63832 10.4061 5.946C8.80919 5.85706 7.24987 5.42731 5.83291 4.68562C4.41594 3.94393 3.17417 2.90751 2.19106 1.646C1.83544 2.27675 1.64939 2.98891 1.65106 3.713C1.64729 4.38435 1.80669 5.04656 2.11554 5.64266C2.42439 6.23876 2.87345 6.7509 3.42406 7.135C2.78931 7.11457 2.16936 6.93803 1.61906 6.621V6.673C1.60883 7.6101 1.92127 8.5222 2.50395 9.25619C3.08663 9.99018 3.90407 10.5014 4.81906 10.704C4.47703 10.8002 4.12335 10.8486 3.76806 10.848C3.51633 10.8481 3.26517 10.824 3.01806 10.776C3.26012 11.5826 3.75004 12.2925 4.41831 12.805C5.08659 13.3175 5.89927 13.6065 6.74106 13.631C5.92317 14.2977 4.97882 14.792 3.96487 15.0842C2.95091 15.3764 1.88832 15.4603 0.841064 15.331C2.65112 16.5357 4.77678 17.1786 6.95106 17.179C14.2821 17.179 18.2911 10.913 18.2911 5.479C18.2911 5.301 18.2911 5.124 18.2791 4.947C19.0639 4.36045 19.7381 3.63886 20.2701 2.816L20.2661 2.824Z" fill="#F7E135"/>
<defs>
<linearGradient id="paint0_linear_35_22" x1="0.841064" y1="9.038" x2="20.2701" y2="9.038" gradientUnits="userSpaceOnUse">
<stop offset="0.121" stop-color="#C2C2C2"/>
<stop offset="0.223" stop-color="#D2D2D2"/>
<stop offset="0.379" stop-color="#E5E5E5"/>
<stop offset="0.539" stop-color="#F1F1F1"/>
<stop offset="0.709" stop-color="#F5F5F5"/>
</linearGradient>
</defs>
</svg>

<svg width="21" height="18" fill="none" xmlns="http://www.w3.org/2000/svg"><path d="M20.266 2.824a7.766 7.766 0 0 1-2.289.648 4.105 4.105 0 0 0 1.753-2.275 7.806 7.806 0 0 1-2.53 1 3.925 3.925 0 0 0-2.91-1.3 4.049 4.049 0 0 0-3.984 4.112c-.001.315.032.63.1.937a11.205 11.205 0 0 1-8.215-4.3 4.189 4.189 0 0 0-.54 2.067 4.144 4.144 0 0 0 1.773 3.422 3.865 3.865 0 0 1-1.805-.514v.052a4.083 4.083 0 0 0 3.2 4.031 3.925 3.925 0 0 1-1.801.072 4.01 4.01 0 0 0 3.723 2.855 7.822 7.822 0 0 1-5.9 1.7 11.031 11.031 0 0 0 6.11 1.848c7.331 0 11.34-6.266 11.34-11.7 0-.178 0-.355-.012-.532a8.258 8.258 0 0 0 1.991-2.131l-.004.008Z" fill="#F7E135"/></svg>
